X: 21247
T: Keelman Ower The Land, The
R: waltz
M: 3/4
K: Gmajor
dBG d2g|dBG d2g|ecA gcA|ecA efg|
dBG GAB|dge dBG|AcA BdB|e2d efg:|
|:d2g dgg|d2g dcB|e2a eaa|e2a edc|
d2g dgg|Gge dBG|AcA BdB|e2d efg:|
|:dBG ~G3|dBG ~G3|ecA ~A3|ecA ~A3|
dBG GAB|dge dBG|AcA BdB|e2d efg:|

